X: 169
T: Even the Eagle Dies
C: Teton Sioux band 1911-1914
N: Derived from sioux164.krn
O: South Dakota, U.S.A.
N: Teton Sioux Music by Frances Densmore, 1918
Z: transcribed to **kern format by Craig Sapp
L: 1/8
M: 2/4
Q: 1/4=58
K: A clef=bass
%%linebreak <none>
E FE2 [I:setbarnb 2]| 
E FE2 | 
E< C C/ B,3/ | 
A,4 | 
C< B,- B, D ||  
[M:3/4]E< D E< B,A,2 ||  
[M:2/4]D E E/ =C3/ ||  
[M:3/4]E< A, A,< E, E, A, | 
A,< E,E,2E,2 ||  
[M:2/4]E,3E, | 
E,2D,2 ||  
[M:3/4]E,2E, E,z2 ||  
[M:2/4]E FE2 | 
E FE2 | 
E/ D/ C C/ B,3/ | 
A,2z2 ||  
[M:3/4]E C C C E3/ E/ | 
(E< D) (E< B,)A,2 ||  
[M:2/4]D E E/ B,3/ ||  
[M:3/4]D< A, (A,< E,) E, A, | 
A,< E,E,2E,2 ||  
[M:2/4]E,3E, | 
E,2D,2 | 
E,2E, E, |]  



